X:140
T:Dinny Delaney's
R:Slide
O:Ireland
M:12/8
K:G
A2D DED A2G E2G | A2D DED G2A GED |\
A2D DED c2d e2d | dcA AGE G2A GED |
A2D DED A2B G2B | A2B G2A ~E3 GED |\
A2D DED c2d e2d | dcA AGE G2A GED ||
|:\
dcA AGE c3 ABc | dcA AGE G2A GED |\
dcA AGE c2d e2d | dcA AGE G2A GED :|
